X: 1
T: Dundar Street March
M: 4/4
L: 1/8
R: strathspey
K: Ador
g<f|e2e2 A2A>B|c>de<d c2B>c|d2G2 e>dc<B|c>BA<G B4|
e2e2 A2A>B|c>de<d c2(3ABc|d2G>B e>cd<B|A4 A2:|
G<E|A3B c2c>d|e>de<f g2f>e|d2G2 e>dc<B|c>BA<G B4|
A3B c2c>d|e>de<f g2f>e|d2G>B e>cd<B|A4 A2:|
